storage/app/icons/phosphoricons/bold/table-bold.svg

<svg xmlns="http://www.w3.org/2000/svg" fill="currentColor" viewBox="0 0 256 256"><path d="M224 44H32a12 12 0 0 0-12 12v136a20 20 0 0 0 20 20h176a20 20 0 0 0 20-20V56a12 12 0 0 0-12-12M44 116h32v24H44Zm56 0h112v24H100Zm112-48v24H44V68ZM44 164h32v24H44Zm56 24v-24h112v24Z"/></svg>

<svg xmlns="http://www.w3.org/2000/svg" viewBox="0 0 256 256" fill="currentColor"><path d="M224,44H32A12,12,0,0,0,20,56V192a20,20,0,0,0,20,20H216a20,20,0,0,0,20-20V56A12,12,0,0,0,224,44ZM44,116H76v24H44Zm56,0H212v24H100ZM212,68V92H44V68ZM44,164H76v24H44Zm56,24V164H212v24Z"/></svg>
